!!!COM: Corelli, Arcangelo
!!!OTL: 
!!!ONM: Opus 5, No. 6
!!!OMV: 3
!!!CDT: 1653/2/17/-1713/1/8/
!!!OCY: Italia
**kern	**kern	**kern
*clefC	*clefG	*clefG
*k[f#c#]	*k[f#c#]	*k[f#c#]
*D:	*D:	*D:
*M4/4	*M4/4	*M4/4
=1	=1	=1
4AA	1r	16aa
.	.	16ee
.	.	16cc#
.	.	16ee
8r	.	16a
.	.	16cc#
8A	.	16b
.	.	16a
8G#	.	16b
.	.	16e
8F#	.	16g#
.	.	16b
8G#	.	16ee
.	.	16gg#
8E	.	16ff#
.	.	16ee
=2	=2	=2
4F#	1r	16aa
.	.	16gg#
.	.	16ff#
.	.	16gg#
8r	.	16aa
.	.	16ff#
8B	.	16bb
.	.	16aa
8e	.	16gg#
.	.	16b
8E	.	16cc#
.	.	16dd
8G#	.	16ee
.	.	16b
8E	.	16ee
.	.	16dd
=3	=3	=3
4A	1r	16cc#
.	.	16ee
.	.	16ff#
.	.	16gg#
8r	.	16aa
.	.	16ee
8A	.	16aa
.	.	16gg#
8d	.	16ff#
.	.	16a
8D	.	16b
.	.	16cc#
8F#	.	16dd
.	.	16f#
8D	.	16b
.	.	16a
=4	=4	=4
4E	1r	16g#
.	.	16ee
.	.	16ff#
.	.	16gg#
8r	.	16aa
.	.	16cc#
8C#	.	16b
.	.	16a
8D	.	16b
.	.	16aa
8BB	.	16gg#
.	.	16ff#
8E	.	16gg#
.	.	16b
8EE	.	16cc#
.	.	16b
=5	=5	=5
4AA	1r	16a
.	.	16cc#
.	.	16b
.	.	16cc#
8r	.	16a
.	.	16cc#
8A	.	16b
.	.	16a
4G#	.	16ee
.	.	16gg#
.	.	16ff#
.	.	16gg#
8r	.	16ee
.	.	16gg#
8c#	.	16ff#
.	.	16ee
=6	=6	=6
4F#	1r	16aa
.	.	16ccc#
.	.	16bb
.	.	16ccc#
8r	.	16aa
.	.	16ccc#
8B	.	16bb
.	.	16aa
4E	.	16eee
.	.	16ee
.	.	16gg#
.	.	16ff#
8r	.	16ee
.	.	16gg#
8e	.	16ff#
.	.	16ee
=7	=7	=7
8d#	1r	16ff#
.	.	16bb
8c#	.	16aa
.	.	16bb
8d#	.	16ff#
.	.	16bb
8B	.	16aa
.	.	16bb
4c#	.	16ee
.	.	16aa
.	.	16gg#
.	.	16aa
8r	.	16ee
.	.	16gg#
8c#	.	16ff#
.	.	16ee
=8	=8	=8
8B	1r	16dd#
.	.	16ff#
8A	.	16gg#
.	.	16aa
8G#	.	16bb
.	.	16b
8E	.	16bb
.	.	16b
4A	.	16cc#
.	.	16ee
.	.	16ff#
.	.	16gg#
8r	.	16aa
.	.	16cc#
8AA	.	16aa
.	.	16cc#
=9	=9	=9
4BB	1r	16dd#
.	.	16b
.	.	16cc#
.	.	16dd#
8r	.	16ee
.	.	16b
8G#	.	16ee
.	.	16b
8A	.	16cc#
.	.	16dd#
8E	.	16ee
.	.	16e
8B	.	16f#
.	.	16ee
8BB	.	16dd#
.	.	16f#
=10	=10	=10
4E	1r	16g#
.	.	16e
.	.	16f#
.	.	16g#
4r	.	16a
.	.	16b
.	.	16cc#
.	.	16dd
8G#	.	16ee
.	.	16b
8E	.	16cc#
.	.	16dd
8G#	.	16ee
.	.	16ff#
8E	.	16dd
.	.	16ee
=11	=11	=11
4A	1r	16cc#
.	.	16a
.	.	16b
.	.	16cc#
4r	.	16dd
.	.	16ee
.	.	16ff#
.	.	16gg#
8C#	.	16aa
.	.	16ee
8AA	.	16ff#
.	.	16gg#
8C#	.	16aa
.	.	16bb
8AA	.	16gg#
.	.	16aa
=12	=12	=12
4D	1r	16ff#
.	.	16a
.	.	16b
.	.	16cc#
4r	.	16dd
.	.	16ee
.	.	16cc#
.	.	16dd
8D#	.	16b
.	.	16e
8BB	.	16b
.	.	16cc#
8D#	.	16b
.	.	16f#
8BB	.	16b
.	.	16a
=13	=13	=13
4E	1r	16g#
.	.	16b
.	.	16cc#
.	.	16dd
4r	.	16ee
.	.	16ff#
.	.	16dd
.	.	16ee
8E#	.	16cc#
.	.	16g#
8C#	.	16cc#
.	.	16dd
8E#	.	16cc#
.	.	16g#
8C#	.	16cc#
.	.	16b
=14	=14	=14
4F#	1r	16a
.	.	16cc#
.	.	16dd
.	.	16ee
8r	.	16ff#
.	.	16gg
8AA	.	16ff#
.	.	16ee
4BB	.	16dd
.	.	16cc#
.	.	16b
.	.	16cc#
8r	.	16dd
.	.	16b
8B	.	16cc#
.	.	16dd
=15	=15	=15
4c#	1r	16e#
.	.	16dd
.	.	16cc#
.	.	16b
8r	.	16a
.	.	16cc#
8A	.	16b
.	.	16cc#
8B	.	16dd
.	.	16e#
8F#	.	16f#
.	.	16A
8c#	.	16B
.	.	16f#
8C#	.	16c#
.	.	16e#
=16	=16	=16
4F#	1r	16f#
.	.	16cc#
.	.	16b
.	.	16cc#
4r	.	16g#
.	.	16cc#
.	.	16b
.	.	16cc#
8F#	.	16a#
.	.	16ff#
8G#	.	16ee
.	.	16ff#
8A#	.	16cc#
.	.	16ff#
8F#	.	16ee
.	.	16ff#
=17	=17	=17
4B	1r	16dd#
.	.	16bb
.	.	16ff#
.	.	16dd#
4r	.	16b
.	.	16bb
.	.	16ff#
.	.	16aa
8E	.	16gg#
.	.	16ee
8F#	.	16b
.	.	16g#
8G#	.	16e
.	.	16ee
8E	.	16b
.	.	16dd
=18	=18	=18
4A	1r	16cc#
.	.	16a
.	.	16e
.	.	16c#
4r	.	16A
.	.	16a
.	.	16e
.	.	16g
8D	.	16f#
.	.	16dd
8E	.	16a
.	.	16f#
8F#	.	16d
.	.	16dd
8D	.	16a
.	.	16cc#
=19	=19	=19
4GG#	1r	16b
.	.	16ee
.	.	16b
.	.	16g#
4r	.	16e
.	.	16ee
.	.	16b
.	.	16dd
8A	.	16cc#
.	.	16aa
8B	.	16ee
.	.	16cc#
8c#	.	16a
.	.	16aa
8A	.	16ee
.	.	16gg
=20	=20	=20
4D#	1r	16ff#
.	.	16bb
.	.	16ff#
.	.	16dd#
4r	.	16b
.	.	16bb
.	.	16ff#
.	.	16aa
8E	.	16gg#
.	.	16ee
8D	.	16ff#
.	.	16gg#
8C#	.	16aa
.	.	16cc#
8AA	.	16b
.	.	16a
=21	=21	=21
8D	1r	16b
.	.	16aa
8BB	.	16gg#
.	.	16ff#
8E	.	16gg#
.	.	16b
8EE	.	16cc#
.	.	16b
4AA	.	16a
.	.	16cc#
.	.	16dd
.	.	16ee
8r	.	16ff#
.	.	16aa
8A	.	16gg#
.	.	16ff#
=22	=22	=22
8G#	1r	16bb
.	.	16b
8F#	.	16cc#
.	.	16dd
8G#	.	16ee
.	.	16gg#
8E	.	16ff#
.	.	16ee
4F#	.	16aa
.	.	16a
.	.	16b
.	.	16cc#
8r	.	16dd
.	.	16ff#
8F#	.	16ee
.	.	16dd
=23	=23	=23
8E	1r	16gg#
.	.	16g#
8D	.	16a
.	.	16b
8E	.	16cc#
.	.	16ee
8C#	.	16dd
.	.	16cc#
4D	.	16ff#
.	.	16f#
.	.	16g#
.	.	16a
8r	.	16b
.	.	16dd
8d	.	16cc#
.	.	16b
=24	=24	=24
8c#	1r	16ee
.	.	16e
8B	.	16f#
.	.	16g#
8c#	.	16a
.	.	16c#
8A	.	16d
.	.	16e
4d	.	16f#
.	.	16a
.	.	16b
.	.	16cc#
8r	.	16dd
.	.	16d
8B	.	16e
.	.	16f#
=25	=25	=25
4e	1r	16g#
.	.	16b
.	.	16cc#
.	.	16dd
8r	.	16ee
.	.	16e
8E	.	16f#
.	.	16g#
8C#	.	16a
.	.	16ee
8BB	.	16ff#
.	.	16gg#
8C#	.	16aa
.	.	16a
8AA	.	16b
.	.	16cc#
=26	=26	=26
4BB	1r	16dd
.	.	16ff#
.	.	16gg#
.	.	16aa
8r	.	16bb
.	.	16b
8BB	.	16cc#
.	.	16dd
4C#	.	16cc#
.	.	16ee
.	.	16ff#
.	.	16gg#
8r	.	16aa
.	.	16cc#
8C#	.	16b
.	.	16a
=27	=27	=27
8D	1r	16b
.	.	16aa
8BB	.	16gg#
.	.	16ff#
8E	.	16gg#
.	.	16b
8EE	.	16cc#
.	.	16b
4AA	.	16a
.	.	16ee
.	.	16ff#
.	.	16gg#
8r	.	16aa
.	.	16a
8AA	.	16b
.	.	16cc#
=28	=28	=28
4BB	1r	16dd
.	.	16ff#
.	.	16gg#
.	.	16aa
8r	.	16bb
.	.	16b
8BB	.	16cc#
.	.	16dd
4C#	.	16cc#
.	.	16ee
.	.	16ff#
.	.	16gg#
8r	.	16aa
.	.	16cc#
8C#	.	16b
.	.	16a
=29	=29	=29
8D	4r	16b
.	.	16cc#
8BB	.	16d
.	.	16cc#
8E	4e	8.b
8EE	.	.
.	.	16a
2AA	2A	2a 2e
==	==	==
*-	*-	*-
!!!RWG: This file only contains pitch and duration data.
!!!RWG: Transposing instruments are not transposed.
!!!RWG: Durations of rests and tied notes may be interpreted.
!!!RWG: Key is interpreted using the Humdrum key tool.
!!!SCA: 
!!!YOR: 
!!!AGN: violin
!!!AFT: stage1
!!!ENC: F. Bennion
!!!END: 1997/04/15
!!!AST: baroque
!!!YEC: Copyright 1994, Center for Computer Assisted Research in the Humanities
!!!YEM: Rights to all derivative electronic formats reserved.
!!!YEM: Refer to licensing agreement for further details.
!!!YEN: United States of America
!!!EED: W.B. Hewlett
!!!KEY: 2069731613
!!!EMD: Converted from MuseData to Humdrum Aug 9, 1999, by Bret Aarden using muse2kern.
!!!VTS: 3220961065
